images/ANY ROAD.svg

<svg fill="none" height="29" viewBox="0 0 203 29" width="203" xmlns="http://www.w3.org/2000/svg"><path d="m.468 28 8.676-26.28h9.54l9 26.28h-6.12l-2.124-6.516h-10.98l-2.088 6.516zm9.54-11.412h7.812l-3.276-10.044h-1.332zm21.1042 11.412v-26.28h9.684l9.9 21.492h.504v-21.492h5.544v26.28h-9.756l-9.9-21.492h-.504v21.492zm37.7991 0v-9.972h-1.296l-7.668-16.308h6.048l5.364 11.88h1.152l4.824-11.88h5.724l-7.056 16.308h-1.296v9.972z" fill="#22cf7a"/><path d="m93.8661 28v-26.496h10.3319c3.288 0 5.892.744 7.812 2.232 1.92 1.464 2.88 3.66 2.88 6.588v.576c0 1.92-.444 3.528-1.332 4.824-.864 1.272-2.076 2.232-3.636 2.88l6.732 9.396h-6.84l-5.76-8.424h-4.2839v8.424zm10.7999-21.492h-4.8959v8.424h4.8959c1.272 0 2.292-.384 3.06-1.152.792-.768 1.188-1.788 1.188-3.06 0-1.248-.396-2.256-1.188-3.024-.768-.792-1.788-1.188-3.06-1.188zm27.781 22.176c-2.376 0-4.452-.408-6.228-1.224-1.752-.84-3.204-1.932-4.356-3.276-1.152-1.368-2.016-2.832-2.592-4.392-.552-1.584-.828-3.12-.828-4.608v-.792c0-1.632.288-3.24.864-4.824.6-1.584 1.488-3.024 2.664-4.32 1.176-1.32 2.64-2.364 4.392-3.132 1.752-.792 3.78-1.188001 6.084-1.188001s4.332.396001 6.084 1.188001c1.752.768 3.216 1.812 4.392 3.132 1.176 1.296 2.064 2.736 2.664 4.32s.9 3.192.9 4.824v.792c0 1.488-.288 3.024-.864 4.608-.576 1.56-1.44 3.024-2.592 4.392-1.152 1.344-2.616 2.436-4.392 3.276-1.752.816-3.816 1.224-6.192 1.224zm0-5.508c1.656 0 3.084-.372 4.284-1.116 1.224-.744 2.16-1.752 2.808-3.024s.972-2.676.972-4.212c0-1.632-.336-3.072-1.008-4.32-.648-1.272-1.572-2.268-2.772-2.988s-2.628-1.08-4.284-1.08-3.084.36-4.284 1.08-2.124 1.716-2.772 2.988c-.648 1.248-.972 2.688-.972 4.32 0 1.536.324 2.94.972 4.212s1.572 2.28 2.772 3.024 2.628 1.116 4.284 1.116zm14.939 4.824 8.676-26.28h9.54l9 26.28h-6.12l-2.124-6.516h-10.98l-2.088 6.516zm9.54-11.412h7.812l-3.276-10.044h-1.332zm21.104 11.556v-26.64h9.756c2.376 0 4.452.348 6.228 1.044s3.252 1.644 4.428 2.844c1.2 1.2 2.1 2.58 2.7 4.14.6 1.536.9 3.156.9 4.86v.792c0 1.608-.3 3.18-.9 4.716s-1.5 2.928-2.7 4.176c-1.176 1.248-2.652 2.244-4.428 2.988-1.776.72-3.852 1.08-6.228 1.08zm10.08-21.132h-4.176v15.624h4.176c2.472 0 4.416-.72 5.832-2.16s2.124-3.336 2.124-5.688c0-2.472-.708-4.38-2.124-5.724-1.416-1.368-3.36-2.052-5.832-2.052z" fill="#fff"/></svg>

<svg width="203" height="29" viewBox="0 0 203 29" fill="none" xmlns="http://www.w3.org/2000/svg">
<path d="M0.468 28L9.144 1.72H18.684L27.684 28H21.564L19.44 21.484H8.46L6.372 28H0.468ZM10.008 16.588H17.82L14.544 6.544H13.212L10.008 16.588ZM31.1122 28V1.72H40.7962L50.6962 23.212H51.2002V1.72H56.7442V28H46.9882L37.0882 6.508H36.5842V28H31.1122ZM68.9113 28V18.028H67.6153L59.9473 1.72H65.9953L71.3593 13.6H72.5113L77.3353 1.72H83.0593L76.0033 18.028H74.7073V28H68.9113Z" fill="#22CF7A"/>
<path d="M93.8661 28V1.504H104.198C107.486 1.504 110.09 2.248 112.01 3.736C113.93 5.2 114.89 7.396 114.89 10.324V10.9C114.89 12.82 114.446 14.428 113.558 15.724C112.694 16.996 111.482 17.956 109.922 18.604L116.654 28H109.814L104.054 19.576H99.7701V28H93.8661ZM104.666 6.508H99.7701V14.932H104.666C105.938 14.932 106.958 14.548 107.726 13.78C108.518 13.012 108.914 11.992 108.914 10.72C108.914 9.472 108.518 8.464 107.726 7.696C106.958 6.904 105.938 6.508 104.666 6.508ZM132.447 28.684C130.071 28.684 127.995 28.276 126.219 27.46C124.467 26.62 123.015 25.528 121.863 24.184C120.711 22.816 119.847 21.352 119.271 19.792C118.719 18.208 118.443 16.672 118.443 15.184V14.392C118.443 12.76 118.731 11.152 119.307 9.568C119.907 7.984 120.795 6.544 121.971 5.248C123.147 3.928 124.611 2.884 126.363 2.116C128.115 1.324 130.143 0.927999 132.447 0.927999C134.751 0.927999 136.779 1.324 138.531 2.116C140.283 2.884 141.747 3.928 142.923 5.248C144.099 6.544 144.987 7.984 145.587 9.568C146.187 11.152 146.487 12.76 146.487 14.392V15.184C146.487 16.672 146.199 18.208 145.623 19.792C145.047 21.352 144.183 22.816 143.031 24.184C141.879 25.528 140.415 26.62 138.639 27.46C136.887 28.276 134.823 28.684 132.447 28.684ZM132.447 23.176C134.103 23.176 135.531 22.804 136.731 22.06C137.955 21.316 138.891 20.308 139.539 19.036C140.187 17.764 140.511 16.36 140.511 14.824C140.511 13.192 140.175 11.752 139.503 10.504C138.855 9.232 137.931 8.236 136.731 7.516C135.531 6.796 134.103 6.436 132.447 6.436C130.791 6.436 129.363 6.796 128.163 7.516C126.963 8.236 126.039 9.232 125.391 10.504C124.743 11.752 124.419 13.192 124.419 14.824C124.419 16.36 124.743 17.764 125.391 19.036C126.039 20.308 126.963 21.316 128.163 22.06C129.363 22.804 130.791 23.176 132.447 23.176ZM147.386 28L156.062 1.72H165.602L174.602 28H168.482L166.358 21.484H155.378L153.29 28H147.386ZM156.926 16.588H164.738L161.462 6.544H160.13L156.926 16.588ZM178.03 28.144V1.504H187.786C190.162 1.504 192.238 1.852 194.014 2.548C195.79 3.244 197.266 4.192 198.442 5.392C199.642 6.592 200.542 7.972 201.142 9.532C201.742 11.068 202.042 12.688 202.042 14.392V15.184C202.042 16.792 201.742 18.364 201.142 19.9C200.542 21.436 199.642 22.828 198.442 24.076C197.266 25.324 195.79 26.32 194.014 27.064C192.238 27.784 190.162 28.144 187.786 28.144H178.03ZM188.11 7.012H183.934V22.636H188.11C190.582 22.636 192.526 21.916 193.942 20.476C195.358 19.036 196.066 17.14 196.066 14.788C196.066 12.316 195.358 10.408 193.942 9.064C192.526 7.696 190.582 7.012 188.11 7.012Z" fill="white"/>
</svg>
